X:805
T:Paddy Fahey's No. 8
N:Paddy Fahey
M:4/4
L:1/8
K:G
BABd c2dc | BG~G2 D=F~F2 | EccB cedc | BDFA GFGA |
_BABG c2dc | BG~G2 D=F~F2 | Ec~c2 cedc | BdAB G3B :|
|: dg~g2 dg~g2 | gbaf gdcA | c=f~f2 c=f~f2 | =fage fdcA |
dg~g2 dg~g2 | gbag fdef | gdef gbag | fdcA BGG2 :|
